X: 13151
T: Jocky said to Jeany
%R: minuet
B: James Oswald "The Caledonian Pocket Companion" v.1 b.3 p.15 #1
S: https://ia800501.us.archive.org/18/items/caledonianpocket01rugg/caledonianpocket01rugg_bw.pdf
Z: 2020 John Chambers <jc:trillian.mit.edu>
N: This has the original 3/2 time signature, which is somewhat more difficult to read than the modern 3/4 time.
M: 3/2
L: 1/8
K: G
|: "_Brisk"\
G2B2 G2B2 G2B2 | d2d2 (ed)(cB) TA4 | G2B2 G2B2 G2B2 | edef g2d2 TB4 |\
e3f g2d2 B2G2 | d2d2 (ed)(cB) A4 |
G3F E3F GABd | e2de g2d2 B4 ::\
GdBd GdBd gdBG | ecBd gdcB TA4 | GdBd GdBd gdBG |
bagf gdec B4 |\
gbaf gdBG ecBd | ecdB gdcB TA4 | GFE2- EFGA BABd |
e3f gfgd B4 ::\
(GB)(dB) (dB)(dB) (dB)(dB) | GBdg bgdB TA4 | (GB)(dB) (dB)(dB) (dB)(dB) |
(bg)(bg) (eg)(ed) B4 |\
(bg)(bg) (eg)(ed) (Bg)(dB) | (GB)(dB) (gd)(cB) TA4 | G3F E3F GABd | e2de g2d2 B4 :|


